Sources/FrostedUI/Resources/Icons.xcassets/hashtagFilled12.imageset/hashtag-filled-12.svg

<svg width="12" height="12" viewBox="0 0 12 12" fill="none" xmlns="http://www.w3.org/2000/svg" data-fui-icon="true">
  <path
    d="M8.13477 1.43469C8.31358 0.768066 8.9993 0.372266 9.66602 0.550903C10.3325 0.72965 10.7281 1.41461 10.5498 2.08118L10.3359 2.87903H10.7412C11.4316 2.87903 11.9912 3.43868 11.9912 4.12903C11.9912 4.81938 11.4316 5.37903 10.7412 5.37903H9.66602L9.30957 6.70911H9.8291C10.5195 6.70911 11.0791 7.26875 11.0791 7.95911C11.079 8.64936 10.5194 9.20911 9.8291 9.20911H8.63965L8.30176 10.4708C8.12303 11.1373 7.43806 11.5329 6.77148 11.3546C6.10465 11.1759 5.70902 10.4902 5.8877 9.82336L6.05176 9.20911H4.2627L3.9248 10.4708C3.74608 11.1373 3.06108 11.5328 2.39453 11.3546C1.7277 11.1759 1.33206 10.4902 1.51074 9.82336L1.6748 9.20911H1.25781C0.5677 9.20891 0.00793073 8.64924 0.0078125 7.95911C0.0078125 7.26887 0.567627 6.70931 1.25781 6.70911H2.34473L2.70117 5.37903H2.16992C1.47973 5.37884 0.919922 4.81927 0.919922 4.12903C0.919925 3.43879 1.47973 2.87922 2.16992 2.87903H3.37109L3.75781 1.43469C3.93664 0.768078 4.62235 0.372268 5.28906 0.550903C5.95549 0.729678 6.35112 1.41464 6.17285 2.08118L5.95898 2.87903H7.74805L8.13477 1.43469ZM4.93262 6.70911H6.72168L7.07812 5.37903H5.28906L4.93262 6.70911Z"
    fill="currentColor"
  />
</svg>

<svg xmlns="http://www.w3.org/2000/svg" width="12" height="12" fill="none" data-fui-icon="true" viewBox="0 0 12 12"><path fill="currentColor" d="M8.135 1.435a1.25 1.25 0 0 1 2.415.646l-.214.798h.405a1.25 1.25 0 1 1 0 2.5H9.666l-.356 1.33h.52a1.25 1.25 0 1 1 0 2.5H8.64l-.338 1.262a1.25 1.25 0 1 1-2.414-.648l.164-.614h-1.79l-.337 1.262a1.25 1.25 0 0 1-2.414-.648l.164-.614h-.417a1.25 1.25 0 0 1 0-2.5h1.087L2.7 5.38H2.17a1.25 1.25 0 0 1 0-2.5H3.37l.387-1.444a1.25 1.25 0 0 1 2.415.646l-.214.798h1.79zM4.933 6.709h1.789l.356-1.33H5.29z"/></svg>
